packages/tokens/icons/moonAndStars/size32Px.svg

<svg viewBox="0 0 32 32" fill="none" xmlns="http://www.w3.org/2000/svg" width="1em" height="1em"><path d="M4.49998 23C8.25728 29.5078 16.4508 31.4304 22.5693 27.8979C23.5226 27.3474 24.8859 26.3896 25.8105 25.5346C25.9867 25.3716 25.8378 25.098 25.6004 25.1338C20.3566 25.9253 13.9085 24.0377 11 19C8.09136 13.9621 9.5752 7.25071 12.8732 3.08858C13.0223 2.90041 12.8594 2.6344 12.6301 2.70556C11.4274 3.07878 9.91622 3.78048 8.96287 4.3309C2.84439 7.8634 0.742677 16.4922 4.49998 23Z" stroke="currentColor" stroke-linejoin="round"/><path d="M19.5 16.2143V18.5M21.2143 14.5H23.5M15.5 14.5H17.7857M19.5 10.5V12.7857" stroke="currentColor" stroke-linecap="round"/><path d="M25.5 18.7222V20.5M25.5 20.5L25.5 22.5M25.5 20.5H23.5M25.5 20.5H27.5M25.5 5.5V7.5M25.5 7.5L25.5 9.27778M25.5 7.5H23.5M25.5 7.5H27.5" stroke="currentColor" stroke-linecap="round"/></svg>

<svg xmlns="http://www.w3.org/2000/svg" fill="none" viewBox="0 0 32 32" width="1em" height="1em"><path stroke="currentColor" stroke-linejoin="round" d="M4.5 23c3.757 6.508 11.95 8.43 18.07 4.898.953-.55 2.316-1.508 3.24-2.363.177-.163.028-.437-.21-.401-5.243.791-11.692-1.096-14.6-6.134-2.909-5.038-1.425-11.75 1.873-15.911.15-.189-.014-.455-.243-.383-1.203.373-2.714 1.074-3.667 1.625C2.844 7.863.743 16.492 4.5 23Z"/><path stroke="currentColor" stroke-linecap="round" d="M19.5 16.214V18.5m1.714-4H23.5m-8 0h2.286m1.714-4v2.286m6 5.936V20.5m0 0v2m0-2h-2m2 0h2m-2-15v2m0 0v1.778m0-1.778h-2m2 0h2"/></svg>
